material/.icons/material/ballot-recount-outline.svg

<svg xmlns="http://www.w3.org/2000/svg" viewBox="0 0 24 24"><path d="M6 18v-5h5v5H6m1-4v3h3v-3H7m6-6.5h5v2h-5v-2M5 21a2 2 0 01-2-2V5a2 2 0 012-2h14a2 2 0 012 2v6.17c-.5-.11-1-.17-1.5-.17H19V5H5v14h8.17c.17.72.46 1.39.83 2H5m6-15v5H6V6h5m-1 4V7H7v3h3m9 2v1.5a4 4 0 014 4c0 .82-.25 1.58-.67 2.21l-1.09-1.09c.17-.34.26-.72.26-1.12A2.5 2.5 0 0019 15v1.5l-2.25-2.25L19 12m0 11v-1.5a4 4 0 01-4-4c0-.82.25-1.58.67-2.21l1.09 1.09c-.17.34-.26.72-.26 1.12A2.5 2.5 0 0019 20v-1.5l2.25 2.25L19 23z"/></svg>

<?xml version="1.0" encoding="UTF-8"?><!DOCTYPE svg PUBLIC "-//W3C//DTD SVG 1.1//EN" "http://www.w3.org/Graphics/SVG/1.1/DTD/svg11.dtd"><svg xmlns="http://www.w3.org/2000/svg" xmlns:xlink="http://www.w3.org/1999/xlink" version="1.1" id="mdi-ballot-recount-outline" width="24" height="24" viewBox="0 0 24 24"><path d="M6,18V13H11V18H6M7,14V17H10V14H7M13,7.5H18V9.5H13V7.5M5,21A2,2 0 0,1 3,19V5A2,2 0 0,1 5,3H19A2,2 0 0,1 21,5V11.17C20.5,11.06 20,11 19.5,11H19V5H5V19H13.17C13.34,19.72 13.63,20.39 14,21H5M11,6V11H6V6H11M10,10V7H7V10H10M19,12V13.5A4,4 0 0,1 23,17.5C23,18.32 22.75,19.08 22.33,19.71L21.24,18.62C21.41,18.28 21.5,17.9 21.5,17.5A2.5,2.5 0 0,0 19,15V16.5L16.75,14.25L19,12M19,23V21.5A4,4 0 0,1 15,17.5C15,16.68 15.25,15.92 15.67,15.29L16.76,16.38C16.59,16.72 16.5,17.1 16.5,17.5A2.5,2.5 0 0,0 19,20V18.5L21.25,20.75L19,23Z" /></svg>
